src/icons/Coffe.svg

<svg width="24" height="25" viewBox="0 0 24 25" fill="none" xmlns="http://www.w3.org/2000/svg">
<path d="M19.5 7.83301H3C2.80109 7.83301 2.61032 7.91203 2.46967 8.05268C2.32902 8.19333 2.25 8.3841 2.25 8.58301V13.083C2.25224 14.3599 2.52531 15.6217 3.05117 16.7853C3.57703 17.9488 4.34372 18.9876 5.30063 19.833H3C2.80109 19.833 2.61032 19.912 2.46967 20.0527C2.32902 20.1933 2.25 20.3841 2.25 20.583C2.25 20.7819 2.32902 20.9727 2.46967 21.1133C2.61032 21.254 2.80109 21.333 3 21.333H19.5C19.6989 21.333 19.8897 21.254 20.0303 21.1133C20.171 20.9727 20.25 20.7819 20.25 20.583C20.25 20.3841 20.171 20.1933 20.0303 20.0527C19.8897 19.912 19.6989 19.833 19.5 19.833H17.1994C18.348 18.815 19.219 17.5217 19.7306 16.0746C20.6832 16.0159 21.5776 15.5962 22.2315 14.901C22.8854 14.2058 23.2497 13.2874 23.25 12.333V11.583C23.25 10.5884 22.8549 9.63462 22.1516 8.93136C21.4484 8.2281 20.4946 7.83301 19.5 7.83301ZM21.75 12.333C21.7497 12.8182 21.5925 13.2904 21.3019 13.679C21.0113 14.0675 20.6028 14.3518 20.1375 14.4893C20.2118 14.0242 20.2494 13.554 20.25 13.083V9.46238C20.6886 9.61744 21.0683 9.90461 21.3369 10.2844C21.6055 10.6641 21.7499 11.1178 21.75 11.583V12.333ZM10.5 5.58301V2.58301C10.5 2.3841 10.579 2.19333 10.7197 2.05268C10.8603 1.91203 11.0511 1.83301 11.25 1.83301C11.4489 1.83301 11.6397 1.91203 11.7803 2.05268C11.921 2.19333 12 2.3841 12 2.58301V5.58301C12 5.78192 11.921 5.97269 11.7803 6.11334C11.6397 6.25399 11.4489 6.33301 11.25 6.33301C11.0511 6.33301 10.8603 6.25399 10.7197 6.11334C10.579 5.97269 10.5 5.78192 10.5 5.58301ZM13.5 5.58301V2.58301C13.5 2.3841 13.579 2.19333 13.7197 2.05268C13.8603 1.91203 14.0511 1.83301 14.25 1.83301C14.4489 1.83301 14.6397 1.91203 14.7803 2.05268C14.921 2.19333 15 2.3841 15 2.58301V5.58301C15 5.78192 14.921 5.97269 14.7803 6.11334C14.6397 6.25399 14.4489 6.33301 14.25 6.33301C14.0511 6.33301 13.8603 6.25399 13.7197 6.11334C13.579 5.97269 13.5 5.78192 13.5 5.58301ZM7.5 5.58301V2.58301C7.5 2.3841 7.57902 2.19333 7.71967 2.05268C7.86032 1.91203 8.05109 1.83301 8.25 1.83301C8.44891 1.83301 8.63968 1.91203 8.78033 2.05268C8.92098 2.19333 9 2.3841 9 2.58301V5.58301C9 5.78192 8.92098 5.97269 8.78033 6.11334C8.63968 6.25399 8.44891 6.33301 8.25 6.33301C8.05109 6.33301 7.86032 6.25399 7.71967 6.11334C7.57902 5.97269 7.5 5.78192 7.5 5.58301Z" fill="white"/>
</svg>

<svg width="24" height="25" fill="none" xmlns="http://www.w3.org/2000/svg"><path d="M19.5 7.833H3a.75.75 0 0 0-.75.75v4.5a9.028 9.028 0 0 0 3.05 6.75H3a.75.75 0 1 0 0 1.5h16.5a.75.75 0 1 0 0-1.5h-2.3a9.055 9.055 0 0 0 2.53-3.758 3.75 3.75 0 0 0 3.52-3.742v-.75a3.75 3.75 0 0 0-3.75-3.75Zm2.25 4.5a2.25 2.25 0 0 1-1.613 2.156c.075-.465.112-.935.113-1.406v-3.62a2.25 2.25 0 0 1 1.5 2.12v.75ZM10.5 5.583v-3a.75.75 0 1 1 1.5 0v3a.75.75 0 1 1-1.5 0Zm3 0v-3a.75.75 0 1 1 1.5 0v3a.75.75 0 1 1-1.5 0Zm-6 0v-3a.75.75 0 0 1 1.5 0v3a.75.75 0 0 1-1.5 0Z" fill="#fff"/></svg>
